X: 041
T: Jack Latine
S: MS of Walter Rainstorp 1747++ 
S: https://brbl-dl.library.yale.edu/vufind/Record/3444369
F: https://brbl-dl.library.yale.edu/pdfgen/exportPDF.php?bibid=2057949&solrid=3444369
%R: reel
Z: 2019 John Chambers <jc:trillian.mit.edu>
M: C|
L: 1/16
K: G
|:\
(GABc) d2g2 d2 B4 g2 | d2 B4 g2 d4 B4 |\
(GABc) d2g2 d2 B4 cd | e2 A4 B2 c4 dcBA :|
|:\
GABc d2B2 e2c2 d2B2 | GABc d2B2 d4 B4 |\
GABc d2B2 e2c2 d2B2 | c2 A4 B2 c4 dcBA :|
|:\
g2d2 BcdB g2d2 BcdB | g2d2 BcdB d4 B4 |\
g2d2 BcdB g2d2 BcdB | a2 A4 B2 c4 dcBA :|
%%begintext align
%% 1.t Cu. meet, set & turn :|
%% the two Men & two We: does the same :|
%% 1.t Cu. cross over and turn .|
%% 2.d Cu. does the same :|:
%% all four foot it then take hands, & gallop round .|
%% foot it and Right & Left quite round :|.
%%endtext
